X: 23
T:C'EST L'PRINTEMPS
M:3/4
L:1/4
Q:190
C:M.P.
R:valse
K:C
Gcd|e2d|g2f|e2d|cde|d3|1 cBc|d3:|2 ABd|c3|:efg|gab|c'ba|g3|faf|e3|1 dgf|
e2d:|2 ABd|c3||
